Newaita-dark/apps/64/meld.svg

<?xml version="1.0" encoding="UTF-8"?>
<svg xmlns="http://www.w3.org/2000/svg" xmlns:xlink="http://www.w3.org/1999/xlink" width="64pt" height="64pt" viewBox="0 0 64 64" version="1.1">
<defs>
<linearGradient id="linear0" gradientUnits="userSpaceOnUse" x1="254" y1="233.5" x2="254" y2="254.666672" gradientTransform="matrix(0.125012,0,0,0.125012,-0.00000763012,26.87757)">
<stop offset="0" style="stop-color:rgb(0%,0%,0%);stop-opacity:0.27451;"/>
<stop offset="1" style="stop-color:rgb(0%,0%,0%);stop-opacity:0;"/>
</linearGradient>
<radialGradient id="radial0" gradientUnits="userSpaceOnUse" cx="450.908936" cy="189.579361" fx="450.908936" fy="189.579361" r="21.166656" gradientTransform="matrix(0.000000348341,-0.156265,-0.281277,-0.000000203077,104.261296,127.190665)">
<stop offset="0" style="stop-color:rgb(0%,0%,0%);stop-opacity:0.313725;"/>
<stop offset="0.222222" style="stop-color:rgb(0%,0%,0%);stop-opacity:0.27451;"/>
<stop offset="1" style="stop-color:rgb(0%,0%,0%);stop-opacity:0;"/>
</radialGradient>
<radialGradient id="radial1" gradientUnits="userSpaceOnUse" cx="450.908936" cy="189.579361" fx="450.908936" fy="189.579361" r="21.166656" gradientTransform="matrix(-0.000000348341,0.156265,0.281277,0.000000203077,-40.755227,-15.054958)">
<stop offset="0" style="stop-color:rgb(0%,0%,0%);stop-opacity:0.313725;"/>
<stop offset="0.222222" style="stop-color:rgb(0%,0%,0%);stop-opacity:0.27451;"/>
<stop offset="1" style="stop-color:rgb(0%,0%,0%);stop-opacity:0;"/>
</radialGradient>
<radialGradient id="radial2" gradientUnits="userSpaceOnUse" cx="450.908936" cy="189.579361" fx="450.908936" fy="189.579361" r="21.166656" gradientTransform="matrix(-0.000000348341,-0.156265,0.281277,-0.000000203077,-40.755227,127.190665)">
<stop offset="0" style="stop-color:rgb(0%,0%,0%);stop-opacity:0.313725;"/>
<stop offset="0.222222" style="stop-color:rgb(0%,0%,0%);stop-opacity:0.27451;"/>
<stop offset="1" style="stop-color:rgb(0%,0%,0%);stop-opacity:0;"/>
</radialGradient>
<radialGradient id="radial3" gradientUnits="userSpaceOnUse" cx="450.908936" cy="189.579361" fx="450.908936" fy="189.579361" r="21.166656" gradientTransform="matrix(0.000000348341,0.156265,-0.281277,0.000000203077,104.261293,-15.054959)">
<stop offset="0" style="stop-color:rgb(0%,0%,0%);stop-opacity:0.313725;"/>
<stop offset="0.222222" style="stop-color:rgb(0%,0%,0%);stop-opacity:0.27451;"/>
<stop offset="1" style="stop-color:rgb(0%,0%,0%);stop-opacity:0;"/>
</radialGradient>
<linearGradient id="linear1" gradientUnits="userSpaceOnUse" x1="254" y1="233.5" x2="254" y2="-168.666672" gradientTransform="matrix(0.125012,0,0,0.125012,0,26.877566)">
<stop offset="0" style="stop-color:rgb(25.882353%,64.705882%,96.078431%);stop-opacity:1;"/>
<stop offset="1" style="stop-color:rgb(39.215686%,70.980392%,96.470588%);stop-opacity:1;"/>
</linearGradient>
<linearGradient id="linear2" gradientUnits="userSpaceOnUse" x1="254" y1="201.75" x2="254" y2="-136.916672" >
<stop offset="0" style="stop-color:rgb(100%,71.764706%,30.196078%);stop-opacity:1;"/>
<stop offset="1" style="stop-color:rgb(100%,65.490196%,14.901961%);stop-opacity:1;"/>
</linearGradient>
</defs>
<g id="surface1">
<path style=" stroke:none;fill-rule:nonzero;fill:url(#linear0);" d="M 11.90625 56.066406 L 51.597656 56.066406 L 51.597656 58.714844 L 11.90625 58.714844 Z M 11.90625 56.066406 "/>
<path style=" stroke:none;fill-rule:nonzero;fill:url(#radial0);" d="M 51.597656 56.066406 L 56.890625 56.066406 L 56.890625 53.421875 L 51.597656 53.421875 Z M 51.597656 56.066406 "/>
<path style=" stroke:none;fill-rule:nonzero;fill:url(#radial1);" d="M 11.90625 56.066406 L 6.613281 56.066406 L 6.613281 58.714844 L 11.90625 58.714844 Z M 11.90625 56.066406 "/>
<path style=" stroke:none;fill-rule:nonzero;fill:url(#radial2);" d="M 11.90625 56.066406 L 6.613281 56.066406 L 6.613281 53.421875 L 11.90625 53.421875 Z M 11.90625 56.066406 "/>
<path style=" stroke:none;fill-rule:nonzero;fill:url(#radial3);" d="M 51.597656 56.066406 L 56.890625 56.066406 L 56.890625 58.714844 L 51.597656 58.714844 Z M 51.597656 56.066406 "/>
<path style=" stroke:none;fill-rule:nonzero;fill:url(#linear1);" d="M 11.90625 5.792969 L 51.597656 5.792969 C 54.519531 5.792969 56.890625 8.160156 56.890625 11.085938 L 56.890625 50.777344 C 56.890625 53.699219 54.519531 56.066406 51.597656 56.066406 L 11.90625 56.066406 C 8.984375 56.066406 6.613281 53.699219 6.613281 50.777344 L 6.613281 11.085938 C 6.613281 8.160156 8.984375 5.792969 11.90625 5.792969 Z M 11.90625 5.792969 "/>
<path style=" stroke:none;fill-rule:nonzero;fill:rgb(100%,100%,100%);fill-opacity:0.392157;" d="M 11.90625 5.792969 C 8.976562 5.792969 6.613281 8.152344 6.613281 11.085938 L 6.613281 11.746094 C 6.613281 8.8125 8.976562 6.453125 11.90625 6.453125 L 51.597656 6.453125 C 54.53125 6.453125 56.890625 8.8125 56.890625 11.746094 L 56.890625 11.085938 C 56.890625 8.152344 54.53125 5.792969 51.597656 5.792969 Z M 11.90625 5.792969 "/>
<path style=" stroke:none;fill-rule:nonzero;fill:rgb(0%,0%,0%);fill-opacity:0.235294;" d="M 11.90625 56.066406 C 8.976562 56.066406 6.613281 53.707031 6.613281 50.777344 L 6.613281 50.113281 C 6.613281 53.046875 8.976562 55.40625 11.90625 55.40625 L 51.597656 55.40625 C 54.53125 55.40625 56.890625 53.046875 56.890625 50.113281 L 56.890625 50.777344 C 56.890625 53.707031 54.53125 56.066406 51.597656 56.066406 Z M 11.90625 56.066406 "/>
<path style=" stroke:none;fill-rule:nonzero;fill:rgb(12.941177%,12.941177%,12.941177%);fill-opacity:1;" d="M 11.90625 5.605469 C 8.875 5.605469 6.425781 8.050781 6.425781 11.085938 L 6.425781 50.777344 C 6.425781 53.808594 8.875 56.253906 11.90625 56.253906 L 51.597656 56.253906 C 54.632812 56.253906 57.078125 53.808594 57.078125 50.777344 L 57.078125 11.085938 C 57.078125 8.050781 54.632812 5.605469 51.597656 5.605469 Z M 11.90625 5.980469 L 51.597656 5.980469 C 54.429688 5.980469 56.703125 8.253906 56.703125 11.085938 L 56.703125 50.777344 C 56.703125 53.605469 54.429688 55.878906 51.597656 55.878906 L 11.90625 55.878906 C 9.074219 55.878906 6.800781 53.605469 6.800781 50.777344 L 6.800781 11.085938 C 6.800781 8.253906 9.074219 5.980469 11.90625 5.980469 Z M 11.90625 5.980469 "/>
<path style="fill-rule:nonzero;fill:url(#linear2);stroke-width:3;stroke-linecap:butt;stroke-linejoin:miter;stroke:rgb(12.941177%,12.941177%,12.941177%);stroke-opacity:1;stroke-miterlimit:4;" d="M 102.052754 -136.913707 C 93.366084 -136.913707 84.710661 -128.227036 84.710661 -119.540366 C 84.710661 -46.359854 84.710661 19.946314 84.710661 93.470543 L 107.989687 110.312684 C 153.641578 141.340971 188.357013 153.402319 228.321946 151.027546 C 287.378807 147.496633 335.061753 105.500644 335.093 52.786928 C 335.124247 13.821899 307.533132 -21.580971 277.379762 -21.580971 C 251.132268 -21.580971 228.540675 -6.738638 230.228014 13.165711 C 231.165425 24.102167 238.039768 27.070633 248.663754 21.008712 C 259.662703 14.728062 268.786832 14.946791 278.723383 24.008426 C 285.722715 30.382817 287.691277 35.038623 287.691277 46.006325 C 287.691277 74.909815 265.537142 97.15769 233.477704 97.001455 C 187.200873 96.782726 152.235462 53.224386 152.454191 0.385682 C 152.610426 -41.422826 167.171536 -72.888571 206.636517 -111.947341 C 218.22916 -123.414996 224.697292 -134.882651 223.447412 -136.913707 C 218.8541 -136.913707 126.644156 -136.913707 102.052754 -136.913707 Z M 293.909433 -86.449776 C 289.034899 -86.606011 284.285352 -86.481023 279.28583 -86.168553 C 220.228969 -82.668887 172.546023 -40.672897 172.514776 12.072066 C 172.483529 51.005848 200.074644 86.408717 230.228014 86.408717 C 256.475508 86.408717 279.0671 71.566384 277.379762 51.693282 C 276.442351 40.725579 269.568008 37.757113 258.944022 43.819034 C 247.945072 50.099684 238.820944 49.912202 228.884393 40.81932 C 221.885061 34.444929 219.916499 29.820371 219.916499 18.852668 C 219.916499 -10.082069 242.070633 -32.329944 274.130072 -32.173709 C 320.406903 -31.95498 355.372314 11.634607 355.153585 64.442065 C 354.997349 106.250572 340.43624 137.716317 300.971259 176.775087 C 289.378616 188.242742 282.910483 199.741644 284.160364 201.741453 C 288.003747 201.741453 380.838632 201.741453 405.555021 201.741453 C 414.241692 201.741453 422.928362 193.054783 422.928362 184.368112 C 422.928362 111.187601 422.928362 44.881433 422.928362 -28.642796 L 399.618088 -45.484938 C 359.653155 -72.607348 327.968681 -85.293636 293.909433 -86.449776 Z M 293.909433 -86.449776 " transform="matrix(0.125012,0,0,0.125012,0,26.877566)"/>
</g>
</svg>

<svg xmlns="http://www.w3.org/2000/svg" width="64pt" height="64pt" viewBox="0 0 64 64"><defs><linearGradient id="a" gradientUnits="userSpaceOnUse" x1="254" y1="233.5" x2="254" y2="254.667" gradientTransform="translate(0 26.878) scale(.12501)"><stop offset="0" stop-opacity=".275"/><stop offset="1" stop-opacity="0"/></linearGradient><radialGradient id="b" gradientUnits="userSpaceOnUse" cx="450.909" cy="189.579" fx="450.909" fy="189.579" r="21.167" gradientTransform="matrix(0 -.15626 -.28128 0 104.261 127.19)"><stop offset="0" stop-opacity=".314"/><stop offset=".222" stop-opacity=".275"/><stop offset="1" stop-opacity="0"/></radialGradient><radialGradient id="c" gradientUnits="userSpaceOnUse" cx="450.909" cy="189.579" fx="450.909" fy="189.579" r="21.167" gradientTransform="matrix(0 .15626 .28128 0 -40.755 -15.055)"><stop offset="0" stop-opacity=".314"/><stop offset=".222" stop-opacity=".275"/><stop offset="1" stop-opacity="0"/></radialGradient><radialGradient id="d" gradientUnits="userSpaceOnUse" cx="450.909" cy="189.579" fx="450.909" fy="189.579" r="21.167" gradientTransform="matrix(0 -.15626 .28128 0 -40.755 127.19)"><stop offset="0" stop-opacity=".314"/><stop offset=".222" stop-opacity=".275"/><stop offset="1" stop-opacity="0"/></radialGradient><radialGradient id="e" gradientUnits="userSpaceOnUse" cx="450.909" cy="189.579" fx="450.909" fy="189.579" r="21.167" gradientTransform="matrix(0 .15626 -.28128 0 104.261 -15.055)"><stop offset="0" stop-opacity=".314"/><stop offset=".222" stop-opacity=".275"/><stop offset="1" stop-opacity="0"/></radialGradient><linearGradient id="f" gradientUnits="userSpaceOnUse" x1="254" y1="233.5" x2="254" y2="-168.667" gradientTransform="translate(0 26.878) scale(.12501)"><stop offset="0" stop-color="#42a5f5"/><stop offset="1" stop-color="#64b5f6"/></linearGradient><linearGradient id="g" gradientUnits="userSpaceOnUse" x1="254" y1="201.75" x2="254" y2="-136.917"><stop offset="0" stop-color="#ffb74d"/><stop offset="1" stop-color="#ffa726"/></linearGradient></defs><path d="M11.906 56.066h39.692v2.649H11.906zm0 0" fill="url(#a)"/><path d="M51.598 56.066h5.293v-2.644h-5.293zm0 0" fill="url(#b)"/><path d="M11.906 56.066H6.613v2.649h5.293zm0 0" fill="url(#c)"/><path d="M11.906 56.066H6.613v-2.644h5.293zm0 0" fill="url(#d)"/><path d="M51.598 56.066h5.293v2.649h-5.293zm0 0" fill="url(#e)"/><path d="M11.906 5.793h39.692a5.292 5.292 0 0 1 5.293 5.293v39.691a5.291 5.291 0 0 1-5.293 5.29H11.906a5.291 5.291 0 0 1-5.293-5.29V11.086a5.292 5.292 0 0 1 5.293-5.293zm0 0" fill="url(#f)"/><path d="M11.906 5.793a5.282 5.282 0 0 0-5.293 5.293v.66a5.282 5.282 0 0 1 5.293-5.293h39.692a5.28 5.28 0 0 1 5.293 5.293v-.66a5.28 5.28 0 0 0-5.293-5.293zm0 0" fill="#fff" fill-opacity=".392"/><path d="M11.906 56.066a5.281 5.281 0 0 1-5.293-5.289v-.664a5.282 5.282 0 0 0 5.293 5.293h39.692a5.28 5.28 0 0 0 5.293-5.293v.664c0 2.93-2.36 5.29-5.293 5.29zm0 0" fill-opacity=".235"/><path d="M11.906 5.605a5.472 5.472 0 0 0-5.48 5.48v39.692a5.471 5.471 0 0 0 5.48 5.477h39.692a5.469 5.469 0 0 0 5.48-5.477V11.086a5.47 5.47 0 0 0-5.48-5.48zm0 .375h39.692a5.09 5.09 0 0 1 5.105 5.106v39.691a5.089 5.089 0 0 1-5.105 5.102H11.906a5.089 5.089 0 0 1-5.105-5.102V11.086a5.09 5.09 0 0 1 5.105-5.106zm0 0" fill="#212121"/><path d="M102.053-136.914c-8.687 0-17.342 8.687-17.342 17.374V93.47l23.279 16.843c45.652 31.028 80.367 43.09 120.332 40.715 59.057-3.531 106.74-45.527 106.771-98.241.031-38.965-27.56-74.368-57.713-74.368-26.248 0-48.84 14.842-47.152 34.747.937 10.936 7.812 13.905 18.436 7.843 10.999-6.28 20.123-6.062 30.06 3 6.999 6.374 8.967 11.03 8.967 21.997 0 28.904-22.154 51.152-54.213 50.995-46.277-.218-81.243-43.777-81.024-96.615.156-41.809 14.718-73.275 54.183-112.333 11.592-11.468 18.06-22.936 16.81-24.967H102.053zM293.909-86.45c-4.874-.156-9.624-.031-14.623.281-59.057 3.5-106.74 45.496-106.771 98.241-.031 38.934 27.56 74.337 57.713 74.337 26.248 0 48.84-14.843 47.152-34.716-.938-10.967-7.812-13.936-18.436-7.874-10.999 6.28-20.123 6.093-30.06-3-6.999-6.374-8.968-10.999-8.968-21.966 0-28.935 22.155-51.183 54.214-51.027 46.277.219 81.242 43.809 81.024 96.616-.157 41.809-14.718 73.274-54.183 112.333-11.592 11.468-18.06 22.967-16.81 24.966h121.394c8.687 0 17.373-8.686 17.373-17.373v-213.01l-23.31-16.843c-39.965-27.122-71.65-39.809-105.709-40.965zm0 0" transform="translate(0 26.878) scale(.12501)" fill="url(#g)" stroke-width="3" stroke="#212121"/></svg>
